X:1
T:The Well-Tempered Clavier Part I Fuga
T:BWV 858
T:J. S. Bach
%%score { ( 1 3 ) | 2 }
L:1/8
Q:1/4=96
M:4/4
K:F#
V:1 treble nm="Harp"
V:3 treble 
V:2 bass 
V:1
"^Andante" z cfe fe/d/ d/4c/4d/4c/4d/4c/4B/4c/4 | d2 z c BAGc | AF/f/ e/f/g/d/ e/f/g- g/f/f/d/ | %3
 c/d/e/^B/ c/d/e/c/ A/B/ c2 B | c4- cc/d/ e2 | f2 z A GA BA/G/ | A/c/c/A/ G/c/c/G/ Ac f2- | %7
 f e2 d/c/ ^Bd g2- | gf/e/ f2- fe/d/ e2- | eedc ^BG c2- | c2- c/c^B/ ccfe | fe/d/ c2 d2 z c | %12
 BAGc AAd^^c | d2 z e fgaf | d2 z g e2 z e | d/^B/c/e/ d/B/c- c/B/ c2 B | %16
 c2 z ^B c/e/e/c/ B/e/e/B/ | ce a2- ag/f/ g2- | gf/e/ f2- ffed | ^^c z4 D/E/ F/D/D/F/ | %20
 G/D/D/G/ A/D/D/A/ B/D/D/B/ ^^c/D/D/c/ | d2 z/ e/f/g/ ^^c/b/a g/4f/4g/4f/4e/d/ | dfba b4- | %23
 beag a4- | aagf e2 =e2- | e/c/c/=e/ d/B/B/d/ d/B/B/d/ c/A/A/c/ | %26
 c/A/A/c/ B/G/G/B/ B/G/G/B/ A/B/c/G/ | Acd=e- e/d/c/e/ d/B/B/d/ | %28
 =e/B/B/e/ f/B/B/f/ g/B/B/g/ a/B/B/a/ | b z4 dg^^f | gabg ecfe | %31
 fe/d/ d/4c/4d/4c/4d/4c/4B/4c/4 d2 z c | BAGc A/c/c/A/ G/c/c/G/ | Ac f4 e2 | f8 |] %35
V:2
 z8 | z8 | z8 | z8 | z C,F,E, F,E,/D,/ D,/4C,/4D,/4C,/4D,/4C,/4B,,/4C,/4 | D,2 z C, B,,A,,G,,C, | %6
 F,,F,E,C, F,/A,/A,/F,/ D,/F,/F,/D,/ | ^B,,C, F,2- F,/G,/^B,/G,/ E,/G,/G,/E,/ | %8
 ^^C,/A,/A,/F,/ D,/F,/F,/D,/ ^B,,/G,/G,/E,/ ^C,/E,/E,/C,/ | %9
 A,,/C,/C,/A,,/ F,,F,- F,/F,/E,/D,/ C,/D,/E,/C,/ | A,,/C,/C,/A,,/ F,,G,, C,,2 z2 | %11
 z F,/G,/ A,/F,/F,/A,/ B,/F,/F,/B,/ C/F,/F,/C/ | D/F,/F,/D/ E/F,/F,/E/ F/E/D/C/ B,/G/G/B,/ | %13
 A,/F/F/A,/ G,/E/E/G,/ F,/G,/F,/E,/ D,/E,/F,/D,/ | %14
 G,/A,/G,/F,/ E,/F,/G,/E,/ A,/^B,/C- C/B,/A,/G,/ | F,/G,/A,/E,/ F,/G,/A,/F,/ D,E,/F,/ G,G,, | %16
 C,C^B,G, CA,^^G,E, | A,/C/C/A,/ F,/A,/A,/F,/ D,/B,/B,/G,/ E,/G,/G,/E,/ | %18
 ^^C,/A,/A,/F,/ D,/F,/F,/D,/ B,,/D,/D,/B,,/ G,,/B,,/B,,/G,,/ | %19
 A,,A,,D,^^C, D,^C,/B,,/ B,,/4A,,/4B,,/4A,,/4B,,/4A,,/4G,,/4A,,/4 | B,,2 z A,, G,,F,,E,,A,, | %21
 D,,F,, G,,2- G,,/E,/F,/G,/ A,A,, | D,/A,/A,/F,/ D,/F,/F,/D,/ G,,/D/D/B,/ G,/B,/B,/G,/ | %23
 E,/G,/G,/E,/ C,/E,/E,/C,/ F,,/C/C/A,/ F,/A,/A,/F,/ | D,/F,/F,/D,/ B,,/D,/D,/B,,/ C,C,, z C/B,/ | %25
 CF,B,A, B,E,A,G, | A,D,G,F, G,C,F,E, | F,/A,/A,/F,/ D,/F,/F,/D,/ B,, z2 B, | B,8- | %29
 B,/A,/G,/F,/ =E,/C/C/E,/ D,/B,/B,/D,/ C,/A,/A,/C,/ | %30
 B,,/C,/B,,/A,,/ G,,/A,,/B,,/G,,/ C,/D,/C,/B,,/ A,,/B,,/C,/A,,/ | %31
 D,/E,/F,- F,/E,/D,/C,/ B,,/C,/D,/A,,/ B,,/C,/D,/B,,/ | G,,A,,/B,,/ C,C,, F,,F,E,C, | %33
 F,/A,/A,/F,/ D,/F,/F,/D,/ B,,G,,C,C,, | F,,8 |] %35
V:3
 x8 | x8 | z Fc^B cB/A/ A/4G/4A/4G/4A/4G/4F/4G/4 | A2 z G FEDG | EC/B/ A/B/c/G/ A/B/c c/B/A/G/ | %5
 F/G/A/E/ F/G/A/F/ D/E/ F2 E | F2 z E F2 z A | d/G/G/c/ A/F/F/A/ G2 z ^B | A2 z A G2 z G | %9
 F2 F/G/A/F/ D2 z G | FEDD E/G/c/=B/ A/B/c/G/ | A/B/c- c/B/A/G/ F/G/A/E/ F/G/A/E/ | F2 G2- GF z2 | %13
 z Ad^^c defd | ^BGcB cB/A/ G3/2F/4G/4 | A2 z G FEDG | E/G/G/E/ D/G/G/D/ E2 z ^^G | %17
 A2 z c =B2 z B | A2 z A G4- | G/B/A/G/ F/G/A/E/ F/G/A z d | d6 G2 | G/F/G/A/ B2 A z/ d/- d^^c | %22
 d z z2 z dgf | g4- gcfe | fc d2 d/G/G/c/ c/G/G/B/ | A4 G4 | F4 E2 z2 | %27
 z FBA BA/G/[I:staff +1] F3/2=E/4F/4 | G2[I:staff -1] z[I:staff +1] F =EDCF | %29
 D[I:staff -1]DG^^F G2 z A | BcdB G2 z c | A2 z B G/E/F/A/ G/E/F- | F/E/ F2 E F2 z E | %33
 F2 z A G/d/d/B/ G/c/c/B/ | A8 |] %35

